X:123
T:Millbrook (Stalybridge) Morris Dance
Z:Jack Campin, http://www.campin.me.uk/
F:Jack Campin's Nine-Note Tunebook
% last edit 03-02-2013
S:The Morris Dancer, volume IV number 2, May 2010
M:C
L:1/16
Q:1/4=100
N:last figure is called "Tittle-Eara"
K:C
  c3d  c3A  GABc d3B |c2G2 A2F2 E2C2 C4  :|
  F2A2 A3F  E2G2 G3E |F2A2 A3F  E2C2 C4   |
  F2A2 A3F  E2G2 G3G |c2c2 d2B2 c4   c4  ||
|:c3d  c3A  GABc d3B |c2G2 A2F2 E2C2 C4  :|
Q:1/4=80
  GECE GECE GECE A2c2|GECE GECE GECE A2c2 |
  GECE A2c2 GECE A2c2|GABc dcBA GABG c2c2|]

